assets/images/avatar/Avatar 16.svg

<svg fill="none" height="128" viewBox="0 0 128 128" width="128" xmlns="http://www.w3.org/2000/svg" xmlns:xlink="http://www.w3.org/1999/xlink"><mask id="a" height="117" maskUnits="userSpaceOnUse" width="118" x="5" y="5"><path clip-rule="evenodd" d="m63.6506 5.88327c17.6994-1.15278 34.2538 8.55463 45.3724 22.42333 11.181 13.9469 15.899 31.9912 12.308 49.5254-3.692 18.0286-13.969 35.604-31.0908 42.199-16.016 6.17-32.1109-4.229-47.448-11.943-14.8714-7.48-32.7071-14.0763-36.57107-30.3136-3.88906-16.3427 8.41387-30.8928 18.88617-44.0023 10.4234-13.0482 21.9143-26.80578 38.5433-27.88883z" fill="#eff6f7" fill-rule="evenodd"/></mask><g mask="url(#a)"><path clip-rule="evenodd" d="m63.6506 5.88327c17.6994-1.15278 34.2538 8.55463 45.3724 22.42333 11.181 13.9469 15.899 31.9912 12.308 49.5254-3.692 18.0286-13.969 35.604-31.0908 42.199-16.016 6.17-32.1109-4.229-47.448-11.943-14.8714-7.48-32.7071-14.0763-36.57107-30.3136-3.88906-16.3427 8.41387-30.8928 18.88617-44.0023 10.4234-13.0482 21.9143-26.80578 38.5433-27.88883z" fill="#eff6f7" fill-rule="evenodd"/><path d="m88.4388 78.5677c-2.2582-.3048-4.3184-1.2191-6.2841-2.3558-1.8804-1.0789-3.6572-2.3681-5.4431-3.5262-3.0476-2.0022-6.4853-3.8369-10.109-4.7603l-.259.0731-.259-.0731c-3.6237.9143-7.0675 2.7428-10.109 4.7603-1.7737 1.1703-3.5871 2.4717-5.4857 3.5505-1.9414 1.1246-4.0015 2.0237-6.2385 2.3315-8.768 1.219-15.811-7.5033-13.7143-15.8477.7467-2.9958 2.5204-5.5984 3.5871-8.4754 1.4689-3.9619 1.7402-8.0944 2.6636-12.1904.0244-.1311.0457-.2621.0823-.3901 3.0171-12.8427 9.1429-17.3288 11.1726-18.4625 2.5569-1.4324 6.0952-2.2156 5.8118-1.3989 1.7615-5.3242 7.1253-6.0952 12.1904-6.2232h.6614c.579-.0244 1.1489-.0366 1.7158-.0366 11.7882-.0244 24.5821 9.5878 27.008 21.1383.3586 1.7476.5018 3.5326.4266 5.315.9143 4.1052 1.1856 8.2286 2.6759 12.2362 1.0636 2.877 2.8284 5.4857 3.5874 8.4754 2.121 8.3566-4.9223 17.0789-13.6812 15.8599z" fill="#f6e7f8"/><path d="m107.203 97.7158c-5.897-3.0232-18.3436-6.275-23.4331-9.3409-1.7006-1.027-2.816-2.6819-3.5566-4.7025.4674-.5172.8762-1.0844 1.219-1.6914.6248-1.1246.6675-5.9124.122-6.9638-.761.9896-1.603 1.9142-2.5174 2.7642-.3474-3.9314-.1554-8.2926-.1554-12.1722 0-6.8358-6.1166-10.3619-12.5318-11.1269-.0466-.0254-.1011-.0319-.1524-.0183-.0488 0-.1006-.0152-.1524-.0183-6.4.7863-12.5318 4.3277-12.5318 11.1635 0 3.8369.189 8.1493-.1432 12.0503-.8623-.8137-1.6601-1.693-2.3863-2.6301-.5425 1.0514-.4876 5.827.1341 6.9516.3143.5595.685 1.0854 1.1063 1.5695-.7406 2.0785-1.8652 3.776-3.6023 4.8244-5.0895 3.0659-17.536 6.3177-23.4331 9.3409-8.0579 4.1292-11.2762 12.4162-12.3886 24.1982h106.795c-1.11-11.782-4.334-20.069-12.392-24.1982z" fill="#c8d2dc"/><path d="m56.39 121.923h-43.5809c1.1002-11.788 4.3307-20.072 12.3916-24.2041 5.8941-3.0172 18.3345-6.272 23.424-9.3379.7178-.4349 1.3542-.9918 1.8804-1.6457 1.2678 2.7246 2.0602 5.7051 2.8769 8.6065 2.5113 8.9782 2.9593 18.2462 3.008 26.5812z" fill="#8a94af"/><path d="m51.6906 121.923c.6696-11.239-.4527-22.5125-3.3249-33.3988l.2499-.1432c.7178-.4349 1.3542-.9918 1.8803-1.6457 1.2679 2.7246 2.0603 5.7051 2.877 8.6065 2.5204 8.9812 2.9684 18.2492 3.0171 26.5812z" fill="#2d2747"/><path d="m75.9893 121.923h43.5807c-1.1-11.788-4.33-20.072-12.391-24.2041-5.894-3.0172-18.3318-6.272-23.4213-9.3379-.7194-.434-1.3569-.991-1.8834-1.6457-1.2648 2.7246-2.0602 5.7051-2.877 8.6065-2.5021 8.9782-2.9501 18.2462-3.008 26.5812z" fill="#8a94af"/><path d="m80.6979 121.923c-.6696-11.239.4527-22.5125 3.3249-33.3988l-.2468-.1432c-.7194-.434-1.3569-.991-1.8834-1.6457-1.2648 2.7246-2.0602 5.7051-2.877 8.6065-2.5204 8.9812-2.9684 18.2492-3.0171 26.5812z" fill="#2d2747"/><path d="m81.4324 81.9993c-.3411.6118-.7501 1.1833-1.2191 1.7036-.128.1554-.2712.3048-.4114.451-.0798.0872-.1676.1668-.2621.2378-.2255.1767-.448.3535-.6857.5181-.1555.1554-.32.3047-.4846.4632 0 0-.0366.0366-.0488.0366-6.6864 6.0464-21.1383 6.9455-27.5291.9691.6101-.8574 1.0926-1.7987 1.4324-2.7947-.4252-.4879-.798-1.019-1.1124-1.5847-.6095-1.1368-.6736-5.9063-.1311-6.9577.7246.9535 1.5247 1.8473 2.3924 2.6727.3048.2834.6096.5578.9143.829 3.2762 2.7825 7.4423 4.5714 11.7638 4.6507 4.3916.0823 8.7223-1.7402 12.0473-4.5197.3047-.2621.6278-.5455.9356-.8289.9199-.8641 1.7632-1.8063 2.5204-2.816.5302 1.0392.4937 5.8209-.1219 6.9699z" fill="#3f3d65" opacity=".2"/><path d="m86.7109 62.9913c-.3048 1.1825-.7102 2.6148-1.2526 4.3794-1.3217 4.3865-3.8765 8.3007-7.36 11.2762-3.328 2.7855-7.6617 4.611-12.0473 4.5257-4.3276-.0884-8.4937-1.8682-11.7668-4.6598-3.4029-2.9647-5.8974-6.8318-7.1954-11.1543-.5456-1.7646-.96-3.1969-1.2557-4.4038-1.3379-5.3486-.3779-5.7051.2256-10.1668.0213-.1524.0335-.3048.0578-.4724.3048-2.6637.5669-5.2206.9143-7.6191.9143-6.5676 2.5326-11.8583 8.2956-14.5463 3.5871-1.6792 7.4332-1.9657 10.8648-2.1882.0557-.006.1119-.006.1676 0 3.4317.2103 7.2778.4968 10.8648 2.176 5.7631 2.688 7.3844 7.9787 8.2956 14.5464.3444 2.3893.5913 4.9462.9143 7.619.0244.1646.0366.3047.061.4724.5973 4.4861 1.5543 4.8426.2164 10.2156z" fill="#e7baef"/><path d="m55.875 23.5612c14.9334-6.7048 17.3715-.6735 26.4381.7558 15.1345 2.3802 12.6537 19.2426 5.4431 20.4526-7.7501 1.3043-9.0271-4.7696-15.5734-4.3277-8.7101.5913-13.8026-.2346-16.7619-9.3318 0 0-3.8643 2.1577-6.1348 8.0183-2.1852 5.6411-1.4355 9.1429-2.4747 13.1962-1.8651 7.2716-3.1604 7.363-5.4522 8.1006-.9539-13.0225-.4815-31.4545 14.5158-36.864z" fill="#f6e7f8"/><g fill="#6d7195"><path d="m65.7189 53.181c-1.4781 0-2.5936-.3779-3.8644-.8107-.5151-.1737-1.0606-.3596-1.6793-.5333-3.5413-.9996-8.1249-.2194-10.6422 1.0179-.1398.0625-.2983.0683-.4423.0163-.144-.0521-.2621-.1579-.3297-.2953-.0675-.1374-.0791-.2956-.0323-.4414.0468-.1457.1483-.2677.2831-.3402 2.7764-1.3714 7.6191-2.1881 11.4865-1.0971.637.1798 1.2038.3718 1.7371.5547 1.3684.4601 2.4381.8289 3.9985.7283.1552-.0053.3067.0488.4233.1513.1167.1025.1899.2457.2045.4004.0101.1564-.0424.3103-.1459.428-.1034.1177-.2493.1896-.4057.1998-.2042.0122-.4023.0213-.5912.0213z"/><path d="m66.7703 53.181c-.192 0-.387 0-.5912-.0213-.1564-.0102-.3024-.0821-.4058-.1998s-.1559-.2716-.1459-.428c.0147-.1547.0879-.2979.2045-.4004.1167-.1025.2681-.1566.4234-.1513 1.5542.1006 2.6301-.2682 3.9984-.7283.5334-.1829 1.1002-.3749 1.7402-.5547 3.8705-1.091 8.7071-.2743 11.4834 1.0971.0726.0325.1378.0792.1919.1374s.0959.1267.1229.2014.0387.1541.0343.2334c-.0044.0794-.0247.1571-.0597.2284s-.0841.1348-.1442.1867-.1301.0912-.2058.1155c-.0757.0242-.1554.033-.2345.0258-.0791-.0073-.156-.0304-.226-.068-2.5143-1.2373-7.0979-2.0206-10.6423-1.0179-.6095.1737-1.1642.3596-1.6792.5333-1.2709.4328-2.3833.8107-3.8644.8107z"/><path d="m56.9082 62.1532c-.9672.0147-1.9274-.1667-2.8226-.5333-.8952-.3667-1.7068-.911-2.3857-1.6-1.8865-1.8957-2.9959-5.0865-2.8252-8.1311l1.1825.0671c-.1524 2.7215.8198 5.5619 2.4807 7.2289.6148.6215 1.3573 1.102 2.1761 1.4083.8187.3062 1.6943.4309 2.566.3654 3.9619-.1981 5.9825-5.0925 6.1532-8.5059l1.1825.0579c-.192 3.8583-2.5783 9.3958-7.2777 9.6274-.1433.0122-.2865.0153-.4298.0153z"/><path d="m44.9249 53.8179h-.0761l.0853-1.1824c.3261.0548 2.4381-.4419 4.1935-.8808l.3048 1.1459c-.8716.2164-3.6998.9173-4.5075.9173z"/><path d="m87.4667 53.8179c-.8107 0-3.6297-.7009-4.4953-.9142l.3048-1.1459c1.7341.4388 3.8156.9142 4.1935.8807l.0823 1.1825z"/><path d="m75.581 62.1532c-.1433 0-.2835 0-.4267 0-4.6994-.2316-7.0857-5.7691-7.2808-9.6274l1.1825-.0579c.1707 3.4133 2.1943 8.3078 6.1562 8.5059.8711.0664 1.7462-.0575 2.5646-.3633.8183-.3058 1.5604-.786 2.1745-1.4074 1.6609-1.6701 2.6331-4.5105 2.4807-7.232l1.1825-.067c.1707 3.0476-.9387 6.2354-2.8251 8.131-.6803.6863-1.4925 1.2278-2.3876 1.5918s-1.8547.543-2.8208.5263z"/></g><path d="m84.7786 55.2321c.3048-.9692 2.4381-6.0313 4.8031-4.0351 1.3745 1.1642.9143 4.5714-.1463 7.7684-.9722 2.9623-3.4591 5.6381-4.0137 5.8331-.5547.1951-.6431-9.5664-.6431-9.5664z" fill="#e7baef"/><path d="m47.0065 55.2321c-.3048-.9692-2.4381-6.0313-4.8031-4.0351-1.3775 1.1642-.9143 4.5714.1433 7.7684.9752 2.9623 3.4621 5.6381 4.0167 5.8331.5547.1951.6431-9.5664.6431-9.5664z" fill="#e7baef"/></g></svg>

<svg width="128" height="128" viewBox="0 0 128 128" fill="none" xmlns="http://www.w3.org/2000/svg">
<mask id="mask0_457_1641" style="mask-type:alpha" maskUnits="userSpaceOnUse" x="5" y="5" width="118" height="117">
<path fill-rule="evenodd" clip-rule="evenodd" d="M63.6506 5.88327C81.35 4.73049 97.9044 14.4379 109.023 28.3066C120.204 42.2535 124.922 60.2978 121.331 77.832C117.639 95.8606 107.362 113.436 90.2402 120.031C74.2242 126.201 58.1293 115.802 42.7922 108.088C27.9208 100.608 10.0851 94.0117 6.22113 77.7744C2.33207 61.4317 14.635 46.8816 25.1073 33.7721C35.5307 20.7239 47.0216 6.96632 63.6506 5.88327Z" fill="#EFF6F7"/>
</mask>
<g mask="url(#mask0_457_1641)">
<path fill-rule="evenodd" clip-rule="evenodd" d="M63.6506 5.88327C81.35 4.73049 97.9044 14.4379 109.023 28.3066C120.204 42.2535 124.922 60.2978 121.331 77.832C117.639 95.8606 107.362 113.436 90.2402 120.031C74.2242 126.201 58.1293 115.802 42.7922 108.088C27.9208 100.608 10.0851 94.0117 6.22113 77.7744C2.33207 61.4317 14.635 46.8816 25.1073 33.7721C35.5307 20.7239 47.0216 6.96632 63.6506 5.88327Z" fill="#EFF6F7"/>
<path d="M88.4388 78.5677C86.1806 78.2629 84.1204 77.3486 82.1547 76.2119C80.2743 75.133 78.4975 73.8438 76.7116 72.6857C73.664 70.6835 70.2263 68.8488 66.6026 67.9254L66.3436 67.9985L66.0846 67.9254C62.4609 68.8397 59.0171 70.6682 55.9756 72.6857C54.2019 73.856 52.3885 75.1574 50.4899 76.2362C48.5485 77.3608 46.4884 78.2599 44.2514 78.5677C35.4834 79.7867 28.4404 71.0644 30.5371 62.72C31.2838 59.7242 33.0575 57.1216 34.1242 54.2446C35.5931 50.2827 35.8644 46.1502 36.7878 42.0542C36.8122 41.9231 36.8335 41.7921 36.8701 41.6641C39.8872 28.8214 46.013 24.3353 48.0427 23.2016C50.5996 21.7692 54.1379 20.986 53.8545 21.8027C55.616 16.4785 60.9798 15.7075 66.0449 15.5795H66.7063C67.2853 15.5551 67.8552 15.5429 68.4221 15.5429C80.2103 15.5185 93.0042 25.1307 95.4301 36.6812C95.7887 38.4288 95.9319 40.2138 95.8567 41.9962C96.771 46.1014 97.0423 50.2248 98.5326 54.2324C99.5962 57.1094 101.361 59.7181 102.12 62.7078C104.241 71.0644 97.1977 79.7867 88.4388 78.5677Z" fill="#F6E7F8"/>
<path d="M107.203 97.7158C101.306 94.6926 88.8594 91.4408 83.7699 88.3749C82.0693 87.3479 80.9539 85.693 80.2133 83.6724C80.6807 83.1552 81.0895 82.588 81.4323 81.981C82.0571 80.8564 82.0998 76.0686 81.5543 75.0172C80.7933 76.0068 79.9513 76.9314 79.0369 77.7814C78.6895 73.85 78.8815 69.4888 78.8815 65.6092C78.8815 58.7734 72.7649 55.2473 66.3497 54.4823C66.3031 54.4569 66.2486 54.4504 66.1973 54.464C66.1485 54.464 66.0967 54.4488 66.0449 54.4457C59.6449 55.232 53.5131 58.7734 53.5131 65.6092C53.5131 69.4461 53.7021 73.7585 53.3699 77.6595C52.5076 76.8458 51.7098 75.9665 50.9836 75.0294C50.4411 76.0808 50.496 80.8564 51.1177 81.981C51.432 82.5405 51.8027 83.0664 52.224 83.5505C51.4834 85.629 50.3588 87.3265 48.6217 88.3749C43.5322 91.4408 31.0857 94.6926 25.1886 97.7158C17.1307 101.845 13.9124 110.132 12.8 121.914H119.595C118.485 110.132 115.261 101.845 107.203 97.7158Z" fill="#C8D2DC"/>
<path d="M56.39 121.923H12.8091C13.9093 110.135 17.1398 101.851 25.2007 97.7189C31.0948 94.7017 43.5352 91.4469 48.6247 88.381C49.3425 87.9461 49.9789 87.3892 50.5051 86.7353C51.7729 89.4599 52.5653 92.4404 53.382 95.3418C55.8933 104.32 56.3413 113.588 56.39 121.923Z" fill="#8A94AF"/>
<path d="M51.6906 121.923C52.3602 110.684 51.2379 99.4105 48.3657 88.5242L48.6156 88.381C49.3334 87.9461 49.9698 87.3892 50.4959 86.7353C51.7638 89.4599 52.5562 92.4404 53.3729 95.3418C55.8933 104.323 56.3413 113.591 56.39 121.923H51.6906Z" fill="#2D2747"/>
<path d="M75.9893 121.923H119.57C118.47 110.135 115.24 101.851 107.179 97.7189C101.285 94.7017 88.8472 91.4469 83.7577 88.381C83.0383 87.947 82.4008 87.39 81.8743 86.7353C80.6095 89.4599 79.8141 92.4404 78.9973 95.3418C76.4952 104.32 76.0472 113.588 75.9893 121.923Z" fill="#8A94AF"/>
<path d="M80.6979 121.923C80.0283 110.684 81.1506 99.4105 84.0228 88.5242L83.776 88.381C83.0566 87.947 82.4191 87.39 81.8926 86.7353C80.6278 89.4599 79.8324 92.4404 79.0156 95.3418C76.4952 104.323 76.0472 113.591 75.9985 121.923H80.6979Z" fill="#2D2747"/>
<g style="mix-blend-mode:multiply" opacity="0.2">
<path d="M81.4324 81.9993C81.0913 82.6111 80.6823 83.1826 80.2133 83.7029C80.0853 83.8583 79.9421 84.0077 79.8019 84.1539C79.7221 84.2411 79.6343 84.3207 79.5398 84.3917C79.3143 84.5684 79.0918 84.7452 78.8541 84.9098C78.6986 85.0652 78.5341 85.2145 78.3695 85.373C78.3695 85.373 78.3329 85.4096 78.3207 85.4096C71.6343 91.456 57.1824 92.3551 50.7916 86.3787C51.4017 85.5213 51.8842 84.58 52.224 83.584C51.7988 83.0961 51.426 82.565 51.1116 81.9993C50.5021 80.8625 50.438 76.093 50.9805 75.0416C51.7051 75.9951 52.5052 76.8889 53.3729 77.7143C53.6777 77.9977 53.9825 78.2721 54.2872 78.5433C57.5634 81.3258 61.7295 83.1147 66.051 83.194C70.4426 83.2763 74.7733 81.4538 78.0983 78.6743C78.403 78.4122 78.7261 78.1288 79.0339 77.8454C79.9538 76.9813 80.7971 76.0391 81.5543 75.0294C82.0845 76.0686 82.048 80.8503 81.4324 81.9993Z" fill="#3F3D65"/>
</g>
<path d="M86.7109 62.9913C86.4061 64.1738 86.0007 65.6061 85.4583 67.3707C84.1366 71.7572 81.5818 75.6714 78.0983 78.6469C74.7703 81.4324 70.4366 83.2579 66.051 83.1726C61.7234 83.0842 57.5573 81.3044 54.2842 78.5128C50.8813 75.5481 48.3868 71.681 47.0888 67.3585C46.5432 65.5939 46.1288 64.1616 45.8331 62.9547C44.4952 57.6061 45.4552 57.2496 46.0587 52.7879C46.08 52.6355 46.0922 52.4831 46.1165 52.3155C46.4213 49.6518 46.6834 47.0949 47.0308 44.6964C47.9451 38.1288 49.5634 32.8381 55.3264 30.1501C58.9135 28.4709 62.7596 28.1844 66.1912 27.9619C66.2469 27.9559 66.3031 27.9559 66.3588 27.9619C69.7905 28.1722 73.6366 28.4587 77.2236 30.1379C82.9867 32.8259 84.608 38.1166 85.5192 44.6843C85.8636 47.0736 86.1105 49.6305 86.4335 52.3033C86.4579 52.4679 86.4701 52.608 86.4945 52.7757C87.0918 57.2618 88.0488 57.6183 86.7109 62.9913Z" fill="#E7BAEF"/>
<path d="M55.875 23.5612C70.8084 16.8564 73.2465 22.8877 82.3131 24.317C97.4476 26.6972 94.9668 43.5596 87.7562 44.7696C80.0061 46.0739 78.7291 40 72.1828 40.4419C63.4727 41.0332 58.3802 40.2073 55.4209 31.1101C55.4209 31.1101 51.5566 33.2678 49.2861 39.1284C47.1009 44.7695 47.8506 48.2713 46.8114 52.3246C44.9463 59.5962 43.651 59.6876 41.3592 60.4252C40.4053 47.4027 40.8777 28.9707 55.875 23.5612Z" fill="#F6E7F8"/>
<path d="M65.7189 53.181C64.2408 53.181 63.1253 52.8031 61.8545 52.3703C61.3394 52.1966 60.7939 52.0107 60.1752 51.837C56.6339 50.8374 52.0503 51.6176 49.533 52.8549C49.3932 52.9174 49.2347 52.9232 49.0907 52.8712C48.9467 52.8191 48.8286 52.7133 48.761 52.5759C48.6935 52.4385 48.6819 52.2803 48.7287 52.1345C48.7755 51.9888 48.877 51.8668 49.0118 51.7943C51.7882 50.4229 56.6309 49.6062 60.4983 50.6972C61.1353 50.877 61.7021 51.069 62.2354 51.2519C63.6038 51.712 64.6735 52.0808 66.2339 51.9802C66.3891 51.9749 66.5406 52.029 66.6572 52.1315C66.7739 52.234 66.8471 52.3772 66.8617 52.5319C66.8718 52.6883 66.8193 52.8422 66.7158 52.9599C66.6124 53.0776 66.4665 53.1495 66.3101 53.1597C66.1059 53.1719 65.9078 53.181 65.7189 53.181Z" fill="#6D7195"/>
<path d="M66.7703 53.181C66.5783 53.181 66.3833 53.181 66.1791 53.1597C66.0227 53.1495 65.8767 53.0776 65.7733 52.9599C65.6699 52.8422 65.6174 52.6883 65.6274 52.5319C65.6421 52.3772 65.7153 52.234 65.8319 52.1315C65.9486 52.029 66.1 51.9749 66.2553 51.9802C67.8095 52.0808 68.8854 51.712 70.2537 51.2519C70.7871 51.069 71.3539 50.877 71.9939 50.6972C75.8644 49.6062 80.701 50.4229 83.4773 51.7943C83.5499 51.8268 83.6151 51.8735 83.6692 51.9317C83.7233 51.9899 83.7651 52.0584 83.7921 52.1331C83.8191 52.2078 83.8308 52.2872 83.8264 52.3665C83.822 52.4459 83.8017 52.5236 83.7667 52.5949C83.7317 52.6662 83.6826 52.7297 83.6225 52.7816C83.5624 52.8335 83.4924 52.8728 83.4167 52.8971C83.341 52.9213 83.2613 52.9301 83.1822 52.9229C83.1031 52.9156 83.0262 52.8925 82.9562 52.8549C80.4419 51.6176 75.8583 50.8343 72.3139 51.837C71.7044 52.0107 71.1497 52.1966 70.6347 52.3703C69.3638 52.8031 68.2514 53.181 66.7703 53.181Z" fill="#6D7195"/>
<path d="M56.9082 62.1532C55.941 62.1679 54.9808 61.9865 54.0856 61.6199C53.1904 61.2532 52.3788 60.7089 51.6999 60.0199C49.8134 58.1242 48.704 54.9334 48.8747 51.8888L50.0572 51.9559C49.9048 54.6774 50.877 57.5178 52.5379 59.1848C53.1527 59.8063 53.8952 60.2868 54.714 60.5931C55.5327 60.8993 56.4083 61.024 57.28 60.9585C61.2419 60.7604 63.2625 55.866 63.4332 52.4526L64.6157 52.5105C64.4237 56.3688 62.0374 61.9063 57.338 62.1379C57.1947 62.1501 57.0515 62.1532 56.9082 62.1532Z" fill="#6D7195"/>
<path d="M44.9249 53.8179H44.8488L44.9341 52.6355C45.2602 52.6903 47.3722 52.1936 49.1276 51.7547L49.4324 52.9006C48.5608 53.117 45.7326 53.8179 44.9249 53.8179Z" fill="#6D7195"/>
<path d="M87.4667 53.8179C86.656 53.8179 83.837 53.117 82.9714 52.9037L83.2762 51.7578C85.0103 52.1966 87.0918 52.672 87.4697 52.6385L87.552 53.821L87.4667 53.8179Z" fill="#6D7195"/>
<path d="M75.581 62.1532C75.4377 62.1532 75.2975 62.1532 75.1543 62.1532C70.4549 61.9216 68.0686 56.3841 67.8735 52.5258L69.056 52.4679C69.2267 55.8812 71.2503 60.7757 75.2122 60.9738C76.0833 61.0402 76.9584 60.9163 77.7768 60.6105C78.5951 60.3047 79.3372 59.8245 79.9513 59.2031C81.6122 57.533 82.5844 54.6926 82.432 51.9711L83.6145 51.9041C83.7852 54.9517 82.6758 58.1395 80.7894 60.0351C80.1091 60.7214 79.2969 61.2629 78.4018 61.6269C77.5067 61.9909 76.5471 62.1699 75.581 62.1532Z" fill="#6D7195"/>
<path d="M84.7786 55.2321C85.0834 54.2629 87.2167 49.2008 89.5817 51.197C90.9562 52.3612 90.496 55.7684 89.4354 58.9654C88.4632 61.9277 85.9763 64.6035 85.4217 64.7985C84.867 64.9936 84.7786 55.2321 84.7786 55.2321Z" fill="#E7BAEF"/>
<path d="M47.0065 55.2321C46.7017 54.2629 44.5684 49.2008 42.2034 51.197C40.8259 52.3612 41.2891 55.7684 42.3467 58.9654C43.3219 61.9277 45.8088 64.6035 46.3634 64.7985C46.9181 64.9936 47.0065 55.2321 47.0065 55.2321Z" fill="#E7BAEF"/>
</g>
</svg>
